X:59
T:Coquetside
Z:Jack Campin, http://www.campin.me.uk/
S:Northumbrian Minstrelsy
M:C
L:1/8
K:G
edBG Be      TB2|ed```````BG       Bg TA2 |\
edBG GB```````gd|eg```````ef       gB TA2:|
BgBe g/f/e/d/ gd|Bg```````Bg       eg TA2 |\
BgBe g/f/e/d/ gd|e/f/g/f/ g/f/e/d/ gB TA2:|

